<?xml version="1.0" encoding="UTF-8"?>
<map version="1.10" tiledversion="1.12.1" orientation="orthogonal" renderorder="right-down" width="30" height="20" tilewidth="16" tileheight="16" infinite="1" nextlayerid="3" nextobjectid="1">
 <tileset firstgid="1" source="tiny-dungeon.tsx"/>
 <layer id="1" name="Floor" width="30" height="20">
  <data encoding="csv">
   <chunk x="-32" y="-48" width="16" height="16">
0,0,0,0,0,0,0,0,0,0,0,0,0,0,0,0,
0,0,0,0,0,0,0,0,0,0,0,0,0,0,0,0,
0,0,0,0,0,0,0,0,0,0,0,0,0,0,0,0,
0,0,0,0,0,0,0,0,0,0,0,0,0,0,0,0,
0,0,0,0,0,0,0,0,0,0,0,0,0,0,0,0,
0,0,0,0,0,0,0,0,0,0,0,0,0,0,0,0,
0,0,0,0,0,0,0,0,0,0,0,0,0,0,0,0,
0,0,0,0,0,0,0,0,0,0,0,0,0,0,0,0,
0,0,0,0,0,0,0,0,0,0,0,0,49,49,49,49,
0,0,0,0,0,0,0,0,0,0,0,0,49,49,49,49,
0,0,0,0,0,0,0,0,0,0,0,0,49,49,49,49,
0,0,0,0,0,0,0,0,0,0,0,0,49,49,49,49,
0,0,0,0,0,0,0,0,0,0,0,0,49,49,49,49,
0,0,0,0,0,0,0,0,0,0,0,0,49,49,49,49,
0,0,0,0,0,0,0,0,0,0,0,0,49,49,49,49,
0,0,0,0,0,0,0,0,0,0,0,0,49,49,49,49
</chunk>
   <chunk x="-16" y="-48" width="16" height="16">
0,0,0,0,0,0,0,0,0,0,0,0,0,0,0,0,
0,0,0,0,0,0,0,0,0,0,0,0,0,0,0,0,
0,0,0,0,0,0,0,0,0,0,0,0,0,0,0,0,
0,0,0,0,0,0,0,0,0,0,0,0,0,0,0,0,
0,0,0,0,0,0,0,0,0,0,0,0,0,0,0,0,
0,0,0,0,0,0,0,0,0,0,0,0,0,0,0,0,
0,0,0,0,0,0,0,0,0,0,0,0,0,0,0,0,
0,0,0,0,0,0,0,0,0,0,0,0,0,0,0,0,
49,49,49,49,49,49,49,49,49,49,49,49,49,49,49,49,
49,49,49,49,49,49,49,49,49,49,49,49,49,49,49,49,
49,49,49,49,49,49,49,49,49,49,49,49,49,49,49,49,
49,49,49,49,49,49,49,49,49,49,49,49,49,49,49,49,
49,49,49,49,49,49,49,49,49,49,49,49,49,49,49,49,
49,50,50,49,49,49,43,49,49,49,49,49,50,49,49,49,
49,50,50,49,49,49,49,49,49,49,49,49,49,49,49,49,
49,49,49,49,49,49,49,49,49,49,49,49,49,49,49,49
</chunk>
   <chunk x="0" y="-48" width="16" height="16">
0,0,0,0,0,0,0,0,0,0,0,0,0,0,0,0,
0,0,0,0,0,0,0,0,0,0,0,0,0,0,0,0,
0,0,0,0,0,0,0,0,0,0,0,0,0,0,0,0,
0,0,0,0,0,0,0,0,0,0,0,0,0,0,0,0,
0,0,0,0,0,0,0,0,0,0,0,0,0,0,0,0,
0,0,0,0,0,0,0,0,0,0,0,0,0,0,0,0,
0,0,0,0,0,0,0,0,0,0,0,0,0,0,0,0,
0,0,0,0,0,0,0,0,0,0,0,0,0,0,0,0,
49,49,49,49,49,49,49,49,49,49,49,49,49,49,49,49,
49,49,49,49,49,49,49,49,49,49,49,49,49,49,49,49,
49,49,49,49,49,49,49,49,49,49,49,49,49,49,49,49,
49,49,49,49,49,49,49,49,49,49,49,49,49,49,49,49,
49,49,49,49,49,49,49,49,49,49,49,49,49,49,49,49,
49,49,49,50,49,49,49,49,49,49,50,49,49,49,49,49,
49,49,49,49,49,49,49,49,49,43,49,49,49,49,49,49,
49,49,49,49,49,49,49,49,49,49,49,49,49,49,49,49
</chunk>
   <chunk x="16" y="-48" width="16" height="16">
0,0,0,0,0,0,0,0,0,0,0,0,0,0,0,0,
0,0,0,0,0,0,0,0,0,0,0,0,0,0,0,0,
0,0,0,0,0,0,0,0,0,0,0,0,0,0,0,0,
0,0,0,0,0,0,0,0,0,0,0,0,0,0,0,0,
0,0,0,0,0,0,0,0,0,0,0,0,0,0,0,0,
0,0,0,0,0,0,0,0,0,0,0,0,0,0,0,0,
0,0,0,0,0,0,0,0,0,0,0,0,0,0,0,0,
0,0,0,0,0,0,0,0,0,0,0,0,0,0,0,0,
49,49,49,49,49,49,49,49,49,49,49,49,49,49,49,49,
49,49,49,49,49,49,49,49,49,49,49,49,49,49,49,49,
49,49,49,49,49,49,49,49,49,49,49,49,49,49,49,49,
49,49,49,49,49,49,49,49,49,49,49,49,49,49,49,49,
49,49,49,49,49,49,49,49,49,49,49,49,49,49,49,49,
49,49,49,49,49,49,49,49,49,49,49,49,49,49,49,49,
49,49,50,49,49,49,50,49,49,49,49,49,49,49,49,49,
49,49,49,49,49,49,49,49,49,49,49,49,49,49,49,49
</chunk>
   <chunk x="32" y="-48" width="16" height="16">
0,0,0,0,0,0,0,0,0,0,0,0,0,0,0,0,
0,0,0,0,0,0,0,0,0,0,0,0,0,0,0,0,
0,0,0,0,0,0,0,0,0,0,0,0,0,0,0,0,
0,0,0,0,0,0,0,0,0,0,0,0,0,0,0,0,
0,0,0,0,0,0,0,0,0,0,0,0,0,0,0,0,
0,0,0,0,0,0,0,0,0,0,0,0,0,0,0,0,
0,0,0,0,0,0,0,0,0,0,0,0,0,0,0,0,
0,0,0,0,0,0,0,0,0,0,0,0,0,0,0,0,
49,49,49,49,49,49,49,49,0,0,0,0,0,0,0,0,
49,49,49,49,49,49,49,49,0,0,0,0,0,0,0,0,
49,49,49,49,49,49,49,49,0,0,0,0,0,0,0,0,
49,49,49,49,49,49,49,49,0,0,0,0,0,0,0,0,
49,49,49,49,49,49,49,49,0,0,0,0,0,0,0,0,
50,49,49,49,49,49,49,49,0,0,0,0,0,0,0,0,
49,49,49,49,49,49,49,49,0,0,0,0,0,0,0,0,
49,49,49,49,49,49,49,49,0,0,0,0,0,0,0,0
</chunk>
   <chunk x="-32" y="-32" width="16" height="16">
0,0,0,0,0,0,0,0,0,0,0,0,49,49,49,49,
0,0,0,0,0,0,0,0,0,0,0,0,49,49,49,49,
0,0,0,0,0,0,0,0,0,0,0,0,49,49,49,49,
0,0,0,0,0,0,0,0,0,0,0,0,49,49,49,49,
0,0,0,0,0,0,0,0,0,0,0,0,49,49,49,49,
0,0,0,0,0,0,0,0,0,0,0,0,49,49,49,49,
0,0,0,0,0,0,0,0,0,0,0,0,49,49,49,49,
0,0,0,0,0,0,0,0,0,0,0,0,49,49,50,49,
0,0,0,0,0,0,0,0,0,0,0,0,49,49,49,49,
0,0,0,0,0,0,0,0,0,0,0,0,49,49,49,49,
0,0,0,0,0,0,0,0,0,0,0,0,49,49,49,49,
0,0,0,0,0,0,0,0,0,0,0,0,49,49,49,49,
0,0,0,0,0,0,0,0,0,0,0,0,49,49,49,49,
0,0,0,0,0,0,0,0,0,0,0,0,49,49,49,49,
0,0,0,0,0,0,0,0,0,0,0,0,49,49,49,49,
0,0,0,0,0,0,0,0,0,0,0,0,49,49,49,49
</chunk>
   <chunk x="-16" y="-32" width="16" height="16">
49,49,49,49,49,49,49,49,49,49,49,49,49,49,49,49,
49,49,49,49,49,49,49,49,49,49,49,49,43,49,49,49,
49,50,49,50,49,49,49,49,49,49,49,49,49,49,49,49,
49,49,49,49,49,49,49,49,49,49,49,49,49,49,49,49,
49,49,49,49,49,49,49,49,49,49,49,49,49,49,49,49,
49,49,49,49,49,49,49,49,49,49,49,49,49,49,49,49,
49,49,49,49,49,49,50,49,49,49,49,49,49,49,49,49,
49,49,49,49,49,49,49,49,49,49,49,50,49,50,49,49,
49,49,49,49,49,49,49,49,43,49,49,49,49,49,49,49,
49,49,49,49,49,49,49,49,49,49,49,49,49,49,49,49,
49,49,49,49,49,49,49,49,49,49,49,49,49,49,49,49,
49,49,49,49,49,49,49,49,50,49,49,49,49,49,49,49,
49,49,49,43,49,49,49,49,49,49,49,49,49,49,49,49,
49,49,49,49,49,49,49,49,49,49,49,49,49,49,49,49,
49,49,49,49,50,49,49,49,49,49,49,49,49,49,49,49,
49,49,49,49,49,49,49,49,49,49,49,49,49,49,43,49
</chunk>
   <chunk x="0" y="-32" width="16" height="16">
49,49,49,49,49,49,49,49,49,49,49,49,49,49,49,49,
49,49,43,49,49,49,49,49,49,49,49,49,49,49,49,49,
49,49,49,49,49,49,49,49,49,49,49,49,49,49,49,49,
49,49,49,49,49,49,49,49,49,49,49,49,50,49,49,49,
50,49,49,49,49,49,49,49,49,49,49,49,50,49,49,49,
49,49,49,49,49,49,49,49,49,49,50,49,49,49,49,49,
49,49,49,49,49,49,49,49,49,49,49,49,49,49,49,49,
49,49,49,49,49,49,49,43,49,49,49,49,49,49,49,49,
49,49,49,49,49,49,49,49,49,49,49,49,49,49,49,49,
43,49,49,49,49,49,49,49,49,49,49,49,49,49,49,49,
49,49,49,49,49,49,49,49,49,49,49,49,49,49,43,49,
49,49,49,49,49,49,49,49,49,49,49,49,50,50,50,49,
49,49,49,49,49,49,50,49,49,49,49,49,49,49,49,49,
49,49,49,49,49,49,49,49,49,49,49,49,49,49,49,49,
49,49,49,49,49,49,49,49,49,49,49,49,49,49,49,49,
49,49,49,49,49,49,49,49,49,50,49,49,49,49,49,49
</chunk>
   <chunk x="16" y="-32" width="16" height="16">
49,49,49,49,43,49,49,49,49,49,49,49,49,49,49,49,
49,49,49,49,49,49,49,49,49,49,49,49,49,49,49,49,
49,49,49,49,50,49,49,49,49,49,49,49,49,49,49,49,
49,49,49,49,49,49,49,49,49,49,49,49,49,49,49,49,
49,49,49,49,50,49,49,49,49,49,49,49,49,49,49,49,
49,49,49,49,49,49,49,50,49,49,49,49,49,49,49,49,
49,49,49,50,49,49,49,49,49,49,43,49,49,49,49,49,
49,49,49,49,49,49,49,49,49,49,49,49,49,49,49,49,
49,49,49,49,49,49,49,49,49,49,49,49,49,49,49,49,
49,49,49,49,49,49,49,49,49,49,49,49,49,49,49,49,
49,49,49,49,49,49,49,49,49,49,49,49,49,49,49,49,
49,49,49,49,49,49,49,49,49,49,49,49,49,49,49,49,
49,49,49,49,49,49,49,49,49,49,49,49,49,49,49,49,
49,49,49,49,49,49,49,49,49,49,49,49,49,49,49,49,
49,49,49,49,49,49,49,43,49,49,49,49,49,49,49,49,
49,50,49,49,49,49,49,49,49,49,49,49,49,49,49,50
</chunk>
   <chunk x="32" y="-32" width="16" height="16">
49,49,49,50,49,49,49,49,0,0,0,0,0,0,0,0,
49,49,49,49,49,49,49,49,0,0,0,0,0,0,0,0,
49,49,49,49,49,49,49,49,0,0,0,0,0,0,0,0,
49,50,49,49,49,49,49,49,0,0,0,0,0,0,0,0,
49,49,49,49,50,49,49,49,0,0,0,0,0,0,0,0,
49,49,49,49,49,49,49,49,0,0,0,0,0,0,0,0,
49,49,49,49,49,49,49,49,0,0,0,0,0,0,0,0,
49,49,49,49,49,50,49,49,0,0,0,0,0,0,0,0,
50,49,49,49,49,49,49,49,0,0,0,0,0,0,0,0,
49,49,49,49,49,49,49,49,0,0,0,0,0,0,0,0,
49,49,49,49,49,49,49,49,0,0,0,0,0,0,0,0,
49,49,49,49,49,49,49,49,0,0,0,0,0,0,0,0,
49,49,49,49,49,49,49,49,0,0,0,0,0,0,0,0,
49,49,49,49,49,49,49,49,0,0,0,0,0,0,0,0,
43,49,50,49,49,49,49,49,0,0,0,0,0,0,0,0,
49,49,49,49,49,49,49,49,0,0,0,0,0,0,0,0
</chunk>
   <chunk x="-32" y="-16" width="16" height="16">
0,0,0,0,0,0,0,0,0,0,0,0,49,49,49,49,
0,0,0,0,0,0,0,0,0,0,0,0,49,49,49,49,
0,0,0,0,0,0,0,0,0,0,0,0,49,49,49,49,
0,0,0,0,0,0,0,0,0,0,0,0,49,49,49,49,
0,0,0,0,0,0,0,0,0,0,0,0,49,49,49,49,
0,0,0,0,0,0,0,0,0,0,0,0,49,49,49,49,
0,0,0,0,0,0,0,0,0,0,0,0,49,49,49,49,
0,0,0,0,0,0,0,0,0,0,0,0,49,49,49,49,
0,0,0,0,0,0,0,0,0,0,0,0,49,49,49,49,
0,0,0,0,0,0,0,0,0,0,0,0,49,49,49,49,
0,0,0,0,0,0,0,0,0,0,0,0,49,49,49,49,
0,0,0,0,0,0,0,0,0,0,0,0,49,49,49,49,
0,0,0,0,0,0,0,0,0,0,0,0,49,49,49,49,
0,0,0,0,0,0,0,0,0,0,0,0,49,49,49,49,
0,0,0,0,0,0,0,0,0,0,0,0,49,49,49,49,
0,0,0,0,0,0,0,0,0,0,0,0,49,49,49,49
</chunk>
   <chunk x="-16" y="-16" width="16" height="16">
49,49,49,49,49,49,49,49,49,49,49,50,49,49,49,49,
49,49,49,49,49,49,49,49,49,49,49,49,49,49,49,49,
49,49,49,49,49,49,49,49,49,49,49,50,49,49,50,49,
49,49,49,50,49,49,49,49,49,49,49,49,49,49,49,49,
49,49,49,49,49,49,49,49,49,49,49,50,49,49,49,49,
49,49,49,49,49,49,49,43,49,49,49,49,49,49,49,49,
49,49,49,49,49,49,49,49,49,49,49,49,49,49,49,49,
49,49,49,49,49,49,49,49,49,49,49,49,49,49,49,49,
50,49,49,49,49,49,49,49,49,49,49,49,49,49,49,49,
49,49,49,49,49,49,49,49,50,49,49,49,49,49,49,49,
49,49,49,49,49,49,49,49,49,49,49,49,49,49,49,49,
49,49,49,49,49,49,49,49,49,49,49,49,49,49,43,49,
49,49,49,49,49,49,49,49,49,49,49,49,49,50,49,49,
49,49,49,49,49,49,49,49,49,49,49,49,49,49,49,49,
49,49,49,49,49,49,49,49,49,49,49,49,49,49,49,49,
49,49,49,49,49,49,49,49,49,49,49,49,49,49,49,49
</chunk>
   <chunk x="0" y="-16" width="16" height="16">
49,49,49,49,49,49,49,49,49,49,49,49,49,49,49,49,
49,49,49,49,49,49,43,49,49,49,49,49,49,49,49,49,
49,49,49,49,49,49,49,49,49,49,49,49,49,50,49,49,
49,49,49,49,49,49,49,49,49,49,49,49,49,49,49,49,
49,49,49,49,49,49,49,49,49,49,49,50,49,49,49,49,
49,49,49,49,49,49,49,49,49,49,49,49,49,49,49,49,
49,49,50,50,49,49,49,49,49,49,49,49,49,49,49,49,
49,49,49,49,49,49,49,49,49,49,49,49,49,43,49,49,
49,49,49,49,49,49,49,49,49,49,49,49,49,49,49,49,
49,49,49,49,49,49,49,49,49,49,49,49,49,49,49,49,
49,49,49,49,49,49,49,49,49,49,49,49,49,49,49,49,
49,49,49,49,49,49,49,49,49,49,49,49,49,49,49,49,
49,49,49,49,49,49,49,49,49,49,49,49,49,49,49,49,
49,49,49,49,49,49,49,49,49,49,49,49,49,49,49,49,
49,49,49,49,49,49,49,49,49,49,49,49,49,49,49,49,
49,49,49,49,49,49,49,49,49,49,49,49,49,49,49,49
</chunk>
   <chunk x="16" y="-16" width="16" height="16">
49,49,49,49,49,49,49,49,49,49,49,50,49,49,49,49,
49,49,49,49,49,49,49,49,49,49,49,49,49,49,49,49,
49,49,49,49,49,49,49,49,49,49,49,49,49,49,49,49,
49,49,49,49,49,49,50,49,49,49,49,49,49,49,49,49,
49,49,49,49,49,49,49,49,43,49,49,49,49,50,49,49,
49,49,49,49,49,49,49,49,49,49,49,49,49,49,49,49,
49,49,49,49,49,49,49,49,49,49,49,49,49,49,49,49,
49,49,49,49,49,49,49,49,49,49,49,49,49,49,49,49,
49,49,49,50,49,49,49,49,49,50,49,49,49,49,49,49,
49,49,49,49,49,49,49,49,49,49,49,49,49,49,49,43,
49,50,49,49,49,49,49,49,49,49,49,49,49,49,49,49,
49,49,49,49,49,49,49,49,49,49,49,49,50,49,49,49,
49,49,49,49,49,49,49,49,49,49,49,49,49,49,49,49,
49,49,49,49,49,49,49,49,49,49,49,49,49,49,49,49,
49,49,49,49,49,49,49,49,49,49,49,49,49,49,49,49,
49,49,49,49,49,49,49,49,49,49,49,49,49,49,49,49
</chunk>
   <chunk x="32" y="-16" width="16" height="16">
49,49,49,49,49,49,49,49,0,0,0,0,0,0,0,0,
49,49,49,49,49,49,49,49,0,0,0,0,0,0,0,0,
49,49,49,49,49,49,49,49,0,0,0,0,0,0,0,0,
49,49,49,49,49,49,49,49,0,0,0,0,0,0,0,0,
49,49,50,50,49,49,49,49,0,0,0,0,0,0,0,0,
49,49,49,49,49,49,49,49,0,0,0,0,0,0,0,0,
49,49,49,49,49,49,49,49,0,0,0,0,0,0,0,0,
49,49,49,49,49,49,49,49,0,0,0,0,0,0,0,0,
49,49,49,49,49,49,49,49,0,0,0,0,0,0,0,0,
49,49,49,49,49,49,49,49,0,0,0,0,0,0,0,0,
49,49,49,49,50,49,49,49,0,0,0,0,0,0,0,0,
49,49,49,49,49,49,49,49,0,0,0,0,0,0,0,0,
49,49,49,49,49,49,49,49,0,0,0,0,0,0,0,0,
49,49,49,49,49,49,49,49,0,0,0,0,0,0,0,0,
49,49,49,49,49,49,49,49,0,0,0,0,0,0,0,0,
49,49,49,49,49,49,49,49,0,0,0,0,0,0,0,0
</chunk>
  </data>
 </layer>
 <layer id="2" name="Walls" width="30" height="20" visible="0">
  <data encoding="csv">
   <chunk x="-32" y="-48" width="16" height="16">
0,0,0,0,0,0,0,0,0,0,0,0,0,0,0,0,
0,0,0,0,0,0,0,0,0,0,0,0,0,0,0,0,
0,0,0,0,0,0,0,0,0,0,0,0,0,0,0,0,
0,0,0,0,0,0,0,0,0,0,0,0,0,0,0,0,
0,0,0,0,0,0,0,0,0,0,0,0,0,0,0,0,
0,0,0,0,0,0,0,0,0,0,0,0,0,0,0,0,
0,0,0,0,0,0,0,0,0,0,0,0,0,0,0,0,
0,0,0,0,0,0,0,0,0,0,0,0,0,0,0,0,
0,0,0,0,0,0,0,0,0,0,0,0,1,14,0,0,
0,0,0,0,0,0,0,0,0,0,0,0,1,14,0,0,
0,0,0,0,0,0,0,0,0,0,0,0,1,14,0,0,
0,0,0,0,0,0,0,0,0,0,0,0,2,18,0,0,
0,0,0,0,0,0,0,0,0,0,0,0,14,60,0,0,
0,0,0,0,0,0,0,0,0,0,0,0,14,0,0,0,
0,0,0,0,0,0,0,0,0,0,0,0,14,0,0,0,
0,0,0,0,0,0,0,0,0,0,0,0,14,0,0,0
</chunk>
   <chunk x="-16" y="-48" width="16" height="16">
0,0,0,0,0,0,0,0,0,0,0,0,0,0,0,0,
0,0,0,0,0,0,0,0,0,0,0,0,0,0,0,0,
0,0,0,0,0,0,0,0,0,0,0,0,0,0,0,0,
0,0,0,0,0,0,0,0,0,0,0,0,0,0,0,0,
0,0,0,0,0,0,0,0,0,0,0,0,0,0,0,0,
0,0,0,0,0,0,0,0,0,0,0,0,0,0,0,0,
0,0,0,0,0,0,0,0,0,0,0,0,0,0,0,0,
0,0,0,0,0,0,0,0,0,0,0,0,0,0,0,0,
16,1,1,1,1,1,1,1,1,1,1,1,1,1,1,1,
16,1,25,13,1,1,1,1,1,1,1,1,1,1,1,1,
16,1,1,1,1,1,13,1,1,1,1,1,1,1,1,1,
17,3,3,3,3,3,3,3,3,3,3,3,3,3,3,3,
58,15,15,41,30,30,41,41,41,41,41,29,41,41,41,41,
0,0,0,0,0,0,0,0,0,0,0,0,0,0,0,0,
0,0,0,0,0,0,0,0,0,0,0,0,0,0,0,0,
0,0,0,0,0,0,0,0,0,5,27,27,27,27,27,6
</chunk>
   <chunk x="0" y="-48" width="16" height="16">
0,0,0,0,0,0,0,0,0,0,0,0,0,0,0,0,
0,0,0,0,0,0,0,0,0,0,0,0,0,0,0,0,
0,0,0,0,0,0,0,0,0,0,0,0,0,0,0,0,
0,0,0,0,0,0,0,0,0,0,0,0,0,0,0,0,
0,0,0,0,0,0,0,0,0,0,0,0,0,0,0,0,
0,0,0,0,0,0,0,0,0,0,0,0,0,0,0,0,
0,0,0,0,0,0,0,0,0,0,0,0,0,0,0,0,
0,0,0,0,0,0,0,0,0,0,0,0,0,0,0,0,
1,1,1,1,1,1,1,1,1,1,1,1,1,1,1,1,
1,13,1,1,1,1,1,1,1,1,1,1,1,1,1,1,
1,1,1,1,25,1,1,1,1,1,1,1,1,13,1,1,
3,3,3,3,3,3,3,3,3,3,3,3,3,3,3,3,
41,41,41,15,41,41,41,41,41,41,41,41,15,41,41,41,
0,0,0,0,0,0,0,0,0,0,0,0,0,0,0,0,
0,0,0,0,0,0,0,0,0,0,0,0,0,0,0,0,
0,0,0,5,27,27,27,27,27,6,0,0,0,5,27,27
</chunk>
   <chunk x="16" y="-48" width="16" height="16">
0,0,0,0,0,0,0,0,0,0,0,0,0,0,0,0,
0,0,0,0,0,0,0,0,0,0,0,0,0,0,0,0,
0,0,0,0,0,0,0,0,0,0,0,0,0,0,0,0,
0,0,0,0,0,0,0,0,0,0,0,0,0,0,0,0,
0,0,0,0,0,0,0,0,0,0,0,0,0,0,0,0,
0,0,0,0,0,0,0,0,0,0,0,0,0,0,0,0,
0,0,0,0,0,0,0,0,0,0,0,0,0,0,0,0,
0,0,0,0,0,0,0,0,0,0,0,0,0,0,0,0,
1,1,1,1,1,1,1,1,1,1,1,1,1,1,1,1,
1,1,1,1,1,1,1,1,13,1,1,1,1,1,1,1,
1,1,25,1,1,1,1,1,1,1,1,1,1,1,1,1,
3,3,3,3,3,3,3,3,3,3,3,3,3,3,3,3,
41,29,41,41,41,41,41,41,41,15,41,41,41,41,41,41,
0,0,0,0,0,0,0,0,0,0,0,0,0,0,0,0,
0,0,0,0,0,0,0,0,0,0,0,0,0,0,0,0,
27,27,27,6,0,0,0,5,27,27,27,27,27,6,0,0
</chunk>
   <chunk x="32" y="-48" width="16" height="16">
0,0,0,0,0,0,0,0,0,0,0,0,0,0,0,0,
0,0,0,0,0,0,0,0,0,0,0,0,0,0,0,0,
0,0,0,0,0,0,0,0,0,0,0,0,0,0,0,0,
0,0,0,0,0,0,0,0,0,0,0,0,0,0,0,0,
0,0,0,0,0,0,0,0,0,0,0,0,0,0,0,0,
0,0,0,0,0,0,0,0,0,0,0,0,0,0,0,0,
0,0,0,0,0,0,0,0,0,0,0,0,0,0,0,0,
0,0,0,0,0,0,0,0,0,0,0,0,0,0,0,0,
1,1,1,1,1,1,1,1,0,0,0,0,0,0,0,0,
25,1,1,1,1,13,1,1,0,0,0,0,0,0,0,0,
1,1,1,1,1,1,1,1,0,0,0,0,0,0,0,0,
3,3,3,3,3,3,3,4,0,0,0,0,0,0,0,0,
41,41,41,41,41,41,41,16,0,0,0,0,0,0,0,0,
0,0,0,0,0,0,0,16,0,0,0,0,0,0,0,0,
0,0,0,0,0,0,0,16,0,0,0,0,0,0,0,0,
0,0,0,0,0,0,0,16,0,0,0,0,0,0,0,0
</chunk>
   <chunk x="-32" y="-32" width="16" height="16">
0,0,0,0,0,0,0,0,0,0,0,0,14,0,0,0,
0,0,0,0,0,0,0,0,0,0,0,0,14,0,0,0,
0,0,0,0,0,0,0,0,0,0,0,0,14,0,0,0,
0,0,0,0,0,0,0,0,0,0,0,0,14,0,0,0,
0,0,0,0,0,0,0,0,0,0,0,0,14,0,0,0,
0,0,0,0,0,0,0,0,0,0,0,0,14,0,0,0,
0,0,0,0,0,0,0,0,0,0,0,0,14,0,0,0,
0,0,0,0,0,0,0,0,0,0,0,0,14,0,0,0,
0,0,0,0,0,0,0,0,0,0,0,0,14,0,0,0,
0,0,0,0,0,0,0,0,0,0,0,0,26,27,27,27,
0,0,0,0,0,0,0,0,0,0,0,0,1,1,1,1,
0,0,0,0,0,0,0,0,0,0,0,0,14,37,38,38,
0,0,0,0,0,0,0,0,0,0,0,0,14,0,0,0,
0,0,0,0,0,0,0,0,0,0,0,0,14,0,0,0,
0,0,0,0,0,0,0,0,0,0,0,0,14,0,0,0,
0,0,0,0,0,0,0,0,0,0,0,0,14,0,0,0
</chunk>
   <chunk x="-16" y="-32" width="16" height="16">
0,0,0,0,0,0,0,0,0,16,1,1,1,1,1,14,
0,0,0,0,0,0,0,0,0,16,1,2,3,3,3,18,
0,0,0,0,0,0,0,0,0,16,1,14,15,29,41,60,
0,0,0,0,0,0,0,0,0,16,1,14,0,0,0,0,
0,0,0,0,0,0,0,0,0,16,1,14,0,0,0,0,
0,0,0,0,0,0,0,0,0,16,13,14,0,0,0,0,
0,0,0,0,0,0,0,0,0,16,1,14,0,0,0,0,
0,0,0,0,0,0,0,0,0,16,1,14,0,0,0,0,
0,0,0,0,0,0,0,0,0,16,1,14,0,0,0,0,
27,27,27,27,27,27,27,27,27,28,1,26,27,27,27,27,
1,1,1,1,1,1,1,1,1,1,1,1,1,1,1,1,
23,24,38,38,38,38,38,38,38,38,38,38,38,38,38,38,
0,0,0,0,0,0,0,0,0,0,0,0,0,0,0,0,
0,0,0,0,0,0,0,0,0,0,0,0,0,0,0,0,
0,0,0,0,0,0,0,0,0,0,0,0,0,0,0,0,
0,0,0,0,0,0,0,0,0,0,0,0,0,0,0,0
</chunk>
   <chunk x="0" y="-32" width="16" height="16">
0,0,0,16,1,1,1,1,1,14,0,0,0,16,1,1,
0,0,0,17,3,4,1,2,3,18,0,0,0,17,3,4,
0,0,0,58,30,16,1,14,41,60,0,0,0,58,41,16,
0,0,0,0,0,16,1,14,0,0,0,0,0,0,0,16,
0,0,0,0,0,16,1,14,0,0,0,0,0,0,0,16,
0,0,0,0,0,16,1,14,0,0,0,0,0,0,0,16,
0,0,0,0,0,16,1,14,0,0,0,0,0,0,0,16,
0,0,0,0,0,16,1,14,0,0,0,0,0,0,0,16,
0,0,0,0,0,16,1,14,0,0,0,0,0,0,0,16,
27,27,27,27,27,28,1,26,27,27,27,27,27,27,27,28,
1,1,1,1,1,1,1,1,1,1,1,1,1,1,1,1,
38,38,38,38,38,38,38,38,38,38,38,38,38,38,38,38,
0,0,0,0,0,0,0,0,0,0,0,0,0,0,0,0,
0,0,0,0,0,0,0,0,0,0,0,0,0,0,0,0,
0,0,0,0,0,0,0,0,0,0,0,0,0,0,0,0,
0,0,0,0,0,0,0,0,0,0,0,0,0,0,0,0
</chunk>
   <chunk x="16" y="-32" width="16" height="16">
1,1,1,14,0,0,0,16,1,1,1,1,1,14,0,0,
25,2,3,18,0,0,0,17,3,3,3,4,13,14,0,0,
1,14,41,60,0,0,0,58,41,29,41,16,1,14,0,0,
1,14,0,0,0,0,0,0,0,0,0,16,1,14,0,0,
1,14,0,0,0,0,0,0,0,0,0,16,1,14,0,0,
1,14,0,0,0,0,0,0,0,0,0,16,1,14,0,0,
1,14,0,0,0,0,0,0,0,0,0,16,13,14,0,0,
1,14,0,0,0,0,0,0,0,0,0,16,1,14,0,0,
1,14,0,0,0,0,0,0,0,0,0,16,1,14,0,0,
1,26,27,27,27,27,27,27,27,27,27,28,1,14,0,0,
1,1,1,1,1,1,1,1,1,1,1,1,1,14,0,0,
38,38,38,38,38,38,38,38,38,38,38,38,38,39,0,0,
0,0,0,0,0,0,0,0,0,0,0,0,0,0,0,0,
0,0,0,0,0,0,0,0,0,0,0,0,0,0,0,0,
0,0,0,0,0,0,0,0,0,0,0,0,0,0,0,0,
0,0,0,0,0,0,0,0,0,0,0,0,0,0,0,0
</chunk>
   <chunk x="32" y="-32" width="16" height="16">
0,0,0,0,0,0,0,16,0,0,0,0,0,0,0,0,
0,0,0,0,0,0,0,16,0,0,0,0,0,0,0,0,
0,0,0,0,0,0,0,16,0,0,0,0,0,0,0,0,
0,0,0,0,0,0,0,16,0,0,0,0,0,0,0,0,
0,0,0,0,0,0,0,16,0,0,0,0,0,0,0,0,
0,0,0,0,0,0,0,16,0,0,0,0,0,0,0,0,
0,0,0,0,0,0,0,16,0,0,0,0,0,0,0,0,
0,0,0,0,0,0,0,16,0,0,0,0,0,0,0,0,
0,0,0,0,0,0,0,16,0,0,0,0,0,0,0,0,
0,0,0,0,0,0,0,16,0,0,0,0,0,0,0,0,
0,0,0,0,0,0,0,16,0,0,0,0,0,0,0,0,
0,0,0,0,0,0,0,16,0,0,0,0,0,0,0,0,
0,0,0,0,0,0,0,16,0,0,0,0,0,0,0,0,
0,0,0,0,0,0,0,16,0,0,0,0,0,0,0,0,
0,0,0,0,0,0,0,16,0,0,0,0,0,0,0,0,
0,0,0,0,0,0,0,16,0,0,0,0,0,0,0,0
</chunk>
   <chunk x="-32" y="-16" width="16" height="16">
0,0,0,0,0,0,0,0,0,0,0,0,14,0,0,0,
0,0,0,0,0,0,0,0,0,0,0,0,14,0,0,0,
0,0,0,0,0,0,0,0,0,0,0,0,14,0,0,0,
0,0,0,0,0,0,0,0,0,0,0,0,14,0,0,0,
0,0,0,0,0,0,0,0,0,0,0,0,14,0,0,0,
0,0,0,0,0,0,0,0,0,0,0,0,14,0,0,0,
0,0,0,0,0,0,0,0,0,0,0,0,14,0,0,0,
0,0,0,0,0,0,0,0,0,0,0,0,14,0,0,0,
0,0,0,0,0,0,0,0,0,0,0,0,14,0,0,0,
0,0,0,0,0,0,0,0,0,0,0,0,14,0,0,0,
0,0,0,0,0,0,0,0,0,0,0,0,14,0,0,0,
0,0,0,0,0,0,0,0,0,0,0,0,14,0,0,0,
0,0,0,0,0,0,0,0,0,0,0,0,14,0,0,0,
0,0,0,0,0,0,0,0,0,0,0,0,14,0,0,0,
0,0,0,0,0,0,0,0,0,0,0,0,14,0,0,0,
0,0,0,0,0,0,0,0,0,0,0,0,26,27,27,27
</chunk>
   <chunk x="-16" y="-16" width="16" height="16">
0,0,0,0,0,0,0,0,0,0,0,0,0,0,0,0,
0,0,0,0,0,0,0,0,0,0,0,0,0,0,0,0,
0,0,0,0,0,0,0,0,0,0,0,0,0,0,0,0,
0,0,0,0,0,0,0,0,0,0,0,0,0,0,0,0,
0,0,0,0,0,0,0,0,0,0,0,0,0,0,0,0,
0,0,0,0,0,0,0,0,0,0,0,0,0,0,0,0,
0,0,0,0,0,0,0,0,0,0,0,0,0,0,0,0,
0,0,0,0,0,0,0,0,0,0,0,0,0,0,0,0,
0,0,0,0,0,0,0,0,0,0,0,0,0,0,0,0,
0,0,0,0,0,0,0,0,0,0,0,0,0,0,0,0,
0,0,0,0,0,0,0,0,0,0,0,0,0,0,0,0,
0,0,0,0,0,0,0,0,0,0,0,0,0,0,0,0,
0,0,0,0,0,0,0,0,0,0,0,0,0,0,0,0,
0,0,0,0,0,0,0,0,0,0,0,0,0,0,0,0,
0,0,0,0,0,0,0,0,0,0,0,0,0,0,0,0,
27,27,27,27,27,27,27,27,27,27,27,27,27,27,27,27
</chunk>
   <chunk x="0" y="-16" width="16" height="16">
0,0,0,0,0,0,0,0,0,0,0,0,0,0,0,0,
0,0,0,0,0,0,0,0,0,0,0,0,0,0,0,0,
0,0,0,0,0,0,0,0,0,0,0,0,0,0,0,0,
0,0,0,0,0,0,0,0,0,0,0,0,0,0,0,0,
0,0,0,0,0,0,0,0,0,0,0,0,0,0,0,0,
0,0,0,0,0,0,0,0,0,0,0,0,0,0,0,0,
0,0,0,0,0,0,0,0,0,0,0,0,0,0,0,0,
0,0,0,0,0,0,0,0,0,0,0,0,0,0,0,0,
0,0,0,0,0,0,0,0,0,0,0,0,0,0,0,0,
0,0,0,0,0,0,0,0,0,0,0,0,0,0,0,0,
0,0,0,0,0,0,0,0,0,0,0,0,0,0,0,0,
0,0,0,0,0,0,0,0,0,0,0,0,0,0,0,0,
0,0,0,0,0,0,0,0,0,0,0,0,0,0,0,0,
0,0,0,0,0,0,0,0,0,0,0,0,0,0,0,0,
0,0,0,0,0,0,0,0,0,0,0,0,0,0,0,0,
27,27,27,27,27,27,27,27,27,27,27,27,27,27,27,27
</chunk>
   <chunk x="16" y="-16" width="16" height="16">
0,0,0,0,0,0,0,0,0,0,0,0,0,0,0,0,
0,0,0,0,0,0,0,0,0,0,0,0,0,0,0,0,
0,0,0,0,0,0,0,0,0,0,0,0,0,0,0,0,
0,0,0,0,0,0,0,0,0,0,0,0,0,0,0,0,
0,0,0,0,0,0,0,0,0,0,0,0,0,0,0,0,
0,0,0,0,0,0,0,0,0,0,0,0,0,0,0,0,
0,0,0,0,0,0,0,0,0,0,0,0,0,0,0,0,
0,0,0,0,0,0,0,0,0,0,0,0,0,0,0,0,
0,0,0,0,0,0,0,0,0,0,0,0,0,0,0,0,
0,0,0,0,0,0,0,0,0,0,0,0,0,0,0,0,
0,0,0,0,0,0,0,0,0,0,0,0,0,0,0,0,
0,0,0,0,0,0,0,0,0,0,0,0,0,0,0,0,
0,0,0,0,0,0,0,0,0,0,0,0,0,0,0,0,
0,0,0,0,0,0,0,0,0,0,0,0,0,0,0,0,
0,0,0,0,0,0,0,0,0,0,0,0,0,0,0,0,
27,27,27,27,27,27,27,27,27,27,27,27,27,27,27,27
</chunk>
   <chunk x="32" y="-16" width="16" height="16">
0,0,0,0,0,0,0,16,0,0,0,0,0,0,0,0,
0,0,0,0,0,0,0,16,0,0,0,0,0,0,0,0,
0,0,0,0,0,0,0,16,0,0,0,0,0,0,0,0,
0,0,0,0,0,0,0,16,0,0,0,0,0,0,0,0,
0,0,0,0,0,0,0,16,0,0,0,0,0,0,0,0,
0,0,0,0,0,0,0,16,0,0,0,0,0,0,0,0,
0,0,0,0,0,0,0,16,0,0,0,0,0,0,0,0,
0,0,0,0,0,0,0,16,0,0,0,0,0,0,0,0,
0,0,0,0,0,0,0,16,0,0,0,0,0,0,0,0,
0,0,0,0,0,0,0,16,0,0,0,0,0,0,0,0,
0,0,0,0,0,0,0,16,0,0,0,0,0,0,0,0,
0,0,0,0,0,0,0,16,0,0,0,0,0,0,0,0,
0,0,0,0,0,0,0,16,0,0,0,0,0,0,0,0,
0,0,0,0,0,0,0,16,0,0,0,0,0,0,0,0,
0,0,0,0,0,0,0,16,0,0,0,0,0,0,0,0,
27,27,27,27,27,27,27,28,0,0,0,0,0,0,0,0
</chunk>
  </data>
 </layer>
</map>
